X: 33092
T: Primrose Polka, The
R: barndance
M: 4/4
K: Dmajor
FG^GA BAGA|f2 d2 f2 d2|FG^GA BAGA|E6 D2|
EFGA BA^GA|e2 c2 c2 B2|1 A^GAB AGEG|F6:|2 ABcB AGFE|D6||
|:F6 (3G^GA|f6 e2|dAFA dced|c2 B^A B4|
[1 E4 FG^GA|c6 B2|A^GAB AGEG|G2F2F2A2:|2 gdBd g2 ag|fdAd f2 Ad|ecAc egfe|d2 f2 d4||
|:fedc d2 A2|fedc d2A2|B^ABc dcB^G|1 A6 F2|GFGA B2A2|FEFG A2 F2|^G2 ^G4z EFG|A2 c2 A4:|
[2 A6 A2|B^ABd g2 d2|A^GAd f2 d2|A^GAc f2 e2|d6||

